mj/qys/gl-mahjongtile-svg/d-8.svg

<svg xmlns="http://www.w3.org/2000/svg" viewBox="30 -115 580 830"><g><path d="M485 76q5 -10 13 -11l7 7v3q0 16 -11 29l-9 1q-6 -6 -6 -14q6 -6 6 -15zM435 76q0 9 6 15q0 8 -6 14l-9 -1q-11 -13 -11 -29v-3l7 -7q8 1 13 11zM205 76q5 -10 13 -11l7 7v3q0 16 -11 29l-9 1q-6 -6 -6 -14q6 -6 6 -15zM155 76q0 9 6 15q0 8 -6 14l-9 -1q-11 -13 -11 -29 v-3l7 -7q8 1 13 11zM345 76q5 -10 13 -11l7 7v3q0 16 -11 29l-9 1q-6 -6 -6 -14q6 -6 6 -15zM295 76q0 9 6 15q0 8 -6 14l-9 -1q-11 -13 -11 -29v-3l7 -7q8 1 13 11zM485 301q5 -10 13 -11l7 7v3q0 16 -11 29l-9 1q-6 -6 -6 -14q6 -6 6 -15zM435 301q0 9 6 15q0 8 -6 14 l-9 -1q-11 -13 -11 -29v-3l7 -7q8 1 13 11zM205 301q5 -10 13 -11l7 7v3q0 16 -11 29l-9 1q-6 -6 -6 -14q6 -6 6 -15zM155 301q0 9 6 15q0 8 -6 14l-9 -1q-11 -13 -11 -29v-3l7 -7q8 1 13 11zM345 301q5 -10 13 -11l7 7v3q0 16 -11 29l-9 1q-6 -6 -6 -14q6 -6 6 -15z M295 301q0 9 6 15q0 8 -6 14l-9 -1q-11 -13 -11 -29v-3l7 -7q8 1 13 11zM485 526q5 -10 13 -11l7 7v3q0 16 -11 29l-9 1q-6 -6 -6 -14q6 -6 6 -15zM435 526q0 9 6 15q0 8 -6 14l-9 -1q-11 -13 -11 -29v-3l7 -7q8 1 13 11zM205 526q5 -10 13 -11l7 7v3q0 16 -11 29l-9 1 q-6 -6 -6 -14q6 -6 6 -15zM155 526q0 9 6 15q0 8 -6 14l-9 -1q-11 -13 -11 -29v-3l7 -7q8 1 13 11zM120 75q0 -25 17.5 -42.5t42.5 -17.5t42.5 17.5t17.5 42.5t-17.5 42.5t-42.5 17.5t-42.5 -17.5t-17.5 -42.5zM130 75q0 21 14.5 35.5t35.5 14.5t35.5 -14.5t14.5 -35.5 t-14.5 -35.5t-35.5 -14.5t-35.5 14.5t-14.5 35.5zM170 75q0 10 10 10t10 -10t-10 -10t-10 10zM160 75q0 -8 6 -14t14 -6t14 6t6 14t-6 14t-14 6t-14 -6t-6 -14zM174 51q-10 2 -15 11l-8 2l-7 -3l-2 -10q11 -16 27 -19l9 4v8zM191 32q16 3 27 19l-2 10l-7 3l-8 -2 q-5 -9 -15 -11l-4 -7v-8zM159 108q3 -9 12 -10q6 2 9 2t9 -2q9 1 12 10l-4 9q-7 3 -17 3t-17 -3zM105 75q0 31 22 53t53 22q24 0 43 -13.5t27 -34.5q8 21 27 34.5t43 13.5t43 -13.5t27 -34.5q8 21 27 34.5t43 13.5q31 0 53 -22t22 -53t-22 -53t-53 -22q-24 0 -43 13.5 t-27 34.5q-8 -21 -27 -34.5t-43 -13.5t-43 13.5t-27 34.5q-8 -21 -27 -34.5t-43 -13.5q-31 0 -53 22t-22 53zM400 75q0 -25 17.5 -42.5t42.5 -17.5t42.5 17.5t17.5 42.5t-17.5 42.5t-42.5 17.5t-42.5 -17.5t-17.5 -42.5zM410 75q0 21 14.5 35.5t35.5 14.5t35.5 -14.5 t14.5 -35.5t-14.5 -35.5t-35.5 -14.5t-35.5 14.5t-14.5 35.5zM450 75q0 10 10 10t10 -10t-10 -10t-10 10zM440 75q0 -8 6 -14t14 -6t14 6t6 14t-6 14t-14 6t-14 -6t-6 -14zM454 51q-10 2 -15 11l-8 2l-7 -3l-2 -10q11 -16 27 -19l9 4v8zM471 32q16 3 27 19l-2 10l-7 3l-8 -2 q-5 -9 -15 -11l-4 -7v-8zM439 108q3 -9 12 -10q6 2 9 2t9 -2q9 1 12 10l-4 9q-7 3 -17 3t-17 -3zM260 75q0 -25 17.5 -42.5t42.5 -17.5t42.5 17.5t17.5 42.5t-17.5 42.5t-42.5 17.5t-42.5 -17.5t-17.5 -42.5zM270 75q0 21 14.5 35.5t35.5 14.5t35.5 -14.5t14.5 -35.5 t-14.5 -35.5t-35.5 -14.5t-35.5 14.5t-14.5 35.5zM310 75q0 10 10 10t10 -10t-10 -10t-10 10zM300 75q0 -8 6 -14t14 -6t14 6t6 14t-6 14t-14 6t-14 -6t-6 -14zM314 51q-10 2 -15 11l-8 2l-7 -3l-2 -10q11 -16 27 -19l9 4v8zM331 32q16 3 27 19l-2 10l-7 3l-8 -2 q-5 -9 -15 -11l-4 -7v-8zM299 108q3 -9 12 -10q6 2 9 2t9 -2q9 1 12 10l-4 9q-7 3 -17 3t-17 -3zM120 525q0 -25 17.5 -42.5t42.5 -17.5t42.5 17.5t17.5 42.5t-17.5 42.5t-42.5 17.5t-42.5 -17.5t-17.5 -42.5zM130 525q0 21 14.5 35.5t35.5 14.5t35.5 -14.5t14.5 -35.5 t-14.5 -35.5t-35.5 -14.5t-35.5 14.5t-14.5 35.5zM170 525q0 10 10 10t10 -10t-10 -10t-10 10zM160 525q0 -8 6 -14t14 -6t14 6t6 14t-6 14t-14 6t-14 -6t-6 -14zM174 501q-10 2 -15 11l-8 2l-7 -3l-2 -10q11 -16 27 -19l9 4v8zM191 482q16 3 27 19l-2 10l-7 3l-8 -2 q-5 -9 -15 -11l-4 -7v-8zM159 558q3 -9 12 -10q6 2 9 2t9 -2q9 1 12 10l-4 9q-7 3 -17 3t-17 -3zM105 525q0 31 22 53t53 22q24 0 43 -13.5t27 -34.5q8 21 27 34.5t43 13.5t43 -13.5t27 -34.5q8 21 27 34.5t43 13.5q31 0 53 -22t22 -53t-22 -53t-53 -22q-24 0 -43 13.5 t-27 34.5q-8 -21 -27 -34.5t-43 -13.5t-43 13.5t-27 34.5q-8 -21 -27 -34.5t-43 -13.5q-31 0 -53 22t-22 53zM400 525q0 -25 17.5 -42.5t42.5 -17.5t42.5 17.5t17.5 42.5t-17.5 42.5t-42.5 17.5t-42.5 -17.5t-17.5 -42.5zM410 525q0 21 14.5 35.5t35.5 14.5t35.5 -14.5 t14.5 -35.5t-14.5 -35.5t-35.5 -14.5t-35.5 14.5t-14.5 35.5zM450 525q0 10 10 10t10 -10t-10 -10t-10 10zM440 525q0 -8 6 -14t14 -6t14 6t6 14t-6 14t-14 6t-14 -6t-6 -14zM454 501q-10 2 -15 11l-8 2l-7 -3l-2 -10q11 -16 27 -19l9 4v8zM471 482q16 3 27 19l-2 10l-7 3 l-8 -2q-5 -9 -15 -11l-4 -7v-8zM439 558q3 -9 12 -10q6 2 9 2t9 -2q9 1 12 10l-4 9q-7 3 -17 3t-17 -3zM260 525q0 -25 17.5 -42.5t42.5 -17.5t42.5 17.5t17.5 42.5t-17.5 42.5t-42.5 17.5t-42.5 -17.5t-17.5 -42.5zM270 525q0 21 14.5 35.5t35.5 14.5t35.5 -14.5 t14.5 -35.5t-14.5 -35.5t-35.5 -14.5t-35.5 14.5t-14.5 35.5zM310 525q0 10 10 10t10 -10t-10 -10t-10 10zM300 525q0 -8 6 -14t14 -6t14 6t6 14t-6 14t-14 6t-14 -6t-6 -14zM314 501q-10 2 -15 11l-8 2l-7 -3l-2 -10q11 -16 27 -19l9 4v8zM331 482q16 3 27 19l-2 10l-7 3 l-8 -2q-5 -9 -15 -11l-4 -7v-8zM345 526q5 -10 13 -11l7 7v3q0 16 -11 29l-9 1q-6 -6 -6 -14q6 -6 6 -15zM295 526q0 9 6 15q0 8 -6 14l-9 -1q-11 -13 -11 -29v-3l7 -7q8 1 13 11zM299 558q3 -9 12 -10q6 2 9 2t9 -2q9 1 12 10l-4 9q-7 3 -17 3t-17 -3zM120 300 q0 -25 17.5 -42.5t42.5 -17.5t42.5 17.5t17.5 42.5t-17.5 42.5t-42.5 17.5t-42.5 -17.5t-17.5 -42.5zM130 300q0 21 14.5 35.5t35.5 14.5t35.5 -14.5t14.5 -35.5t-14.5 -35.5t-35.5 -14.5t-35.5 14.5t-14.5 35.5zM170 300q0 10 10 10t10 -10t-10 -10t-10 10zM160 300 q0 -8 6 -14t14 -6t14 6t6 14t-6 14t-14 6t-14 -6t-6 -14zM174 276q-10 2 -15 11l-8 2l-7 -3l-2 -10q11 -16 27 -19l9 4v8zM191 257q16 3 27 19l-2 10l-7 3l-8 -2q-5 -9 -15 -11l-4 -7v-8zM159 333q3 -9 12 -10q6 2 9 2t9 -2q9 1 12 10l-4 9q-7 3 -17 3t-17 -3zM105 300 q0 31 22 53t53 22q24 0 43 -13.5t27 -34.5q8 21 27 34.5t43 13.5t43 -13.5t27 -34.5q8 21 27 34.5t43 13.5q31 0 53 -22t22 -53t-22 -53t-53 -22q-24 0 -43 13.5t-27 34.5q-8 -21 -27 -34.5t-43 -13.5t-43 13.5t-27 34.5q-8 -21 -27 -34.5t-43 -13.5q-31 0 -53 22t-22 53z M400 300q0 -25 17.5 -42.5t42.5 -17.5t42.5 17.5t17.5 42.5t-17.5 42.5t-42.5 17.5t-42.5 -17.5t-17.5 -42.5zM410 300q0 21 14.5 35.5t35.5 14.5t35.5 -14.5t14.5 -35.5t-14.5 -35.5t-35.5 -14.5t-35.5 14.5t-14.5 35.5zM450 300q0 10 10 10t10 -10t-10 -10t-10 10z M440 300q0 -8 6 -14t14 -6t14 6t6 14t-6 14t-14 6t-14 -6t-6 -14zM454 276q-10 2 -15 11l-8 2l-7 -3l-2 -10q11 -16 27 -19l9 4v8zM471 257q16 3 27 19l-2 10l-7 3l-8 -2q-5 -9 -15 -11l-4 -7v-8zM439 333q3 -9 12 -10q6 2 9 2t9 -2q9 1 12 10l-4 9q-7 3 -17 3t-17 -3z M260 300q0 -25 17.5 -42.5t42.5 -17.5t42.5 17.5t17.5 42.5t-17.5 42.5t-42.5 17.5t-42.5 -17.5t-17.5 -42.5zM270 300q0 21 14.5 35.5t35.5 14.5t35.5 -14.5t14.5 -35.5t-14.5 -35.5t-35.5 -14.5t-35.5 14.5t-14.5 35.5zM310 300q0 10 10 10t10 -10t-10 -10t-10 10z M300 300q0 -8 6 -14t14 -6t14 6t6 14t-6 14t-14 6t-14 -6t-6 -14zM314 276q-10 2 -15 11l-8 2l-7 -3l-2 -10q11 -16 27 -19l9 4v8zM331 257q16 3 27 19l-2 10l-7 3l-8 -2q-5 -9 -15 -11l-4 -7v-8zM299 333q3 -9 12 -10q6 2 9 2t9 -2q9 1 12 10l-4 9q-7 3 -17 3t-17 -3z M550 685h-460q-13 0 -21.5 -8.5t-8.5 -21.5v-710q0 -13 8.5 -21.5t21.5 -8.5h460q13 0 21.5 8.5t8.5 21.5v710q0 13 -8.5 21.5t-21.5 8.5zM610 655v-710q0 -25 -17.5 -42.5t-42.5 -17.5h-460q-25 0 -42.5 17.5t-17.5 42.5v710q0 25 17.5 42.5t42.5 17.5h460q25 0 42.5 -17.5 t17.5 -42.5z" /></g></svg>

<?xml version="1.0" encoding="UTF-8" standalone="no"?>
<svg
   xmlns:dc="http://purl.org/dc/elements/1.1/"
   xmlns:cc="http://creativecommons.org/ns#"
   xmlns:rdf="http://www.w3.org/1999/02/22-rdf-syntax-ns#"
   xmlns:svg="http://www.w3.org/2000/svg"
   xmlns="http://www.w3.org/2000/svg"
   xmlns:sodipodi="http://sodipodi.sourceforge.net/DTD/sodipodi-0.dtd"
   xmlns:inkscape="http://www.inkscape.org/namespaces/inkscape"
   inkscape:version="1.0rc1 (09960d6f05, 2020-04-09)"
   sodipodi:docname="d-8.svg"
   id="svg6"
   version="1.1"
   viewBox="30 -115 580 830">
  <metadata
     id="metadata12">
    <rdf:RDF>
      <cc:Work
         rdf:about="">
        <dc:format>image/svg+xml</dc:format>
        <dc:type
           rdf:resource="http://purl.org/dc/dcmitype/StillImage" />
      </cc:Work>
    </rdf:RDF>
  </metadata>
  <defs
     id="defs10" />
  <sodipodi:namedview
     inkscape:current-layer="svg6"
     inkscape:window-maximized="1"
     inkscape:window-y="-6"
     inkscape:window-x="-6"
     inkscape:cy="393.89383"
     inkscape:cx="451.83213"
     inkscape:zoom="0.59759036"
     showgrid="false"
     id="namedview8"
     inkscape:window-height="698"
     inkscape:window-width="1080"
     inkscape:pageshadow="2"
     inkscape:pageopacity="0"
     guidetolerance="10"
     gridtolerance="10"
     objecttolerance="10"
     borderopacity="1"
     bordercolor="#666666"
     pagecolor="#ffffff" />
  <path
     d="M 550,685 H 90 Q 77,685 68.5,676.5 60,668 60,655 V -55 Q 60,-68 68.5,-76.5 77,-85 90,-85 h 460 q 13,0 21.5,8.5 8.5,8.5 8.5,21.5 v 710 q 0,13 -8.5,21.5 Q 563,685 550,685 Z m 60,-30 V -55 Q 610,-80 592.5,-97.5 575,-115 550,-115 H 90 Q 65,-115 47.5,-97.5 30,-80 30,-55 v 710 q 0,25 17.5,42.5 Q 65,715 90,715 h 460 q 25,0 42.5,-17.5 Q 610,680 610,655 Z"
     style="fill:#999999;stroke:none;stroke-opacity:1;fill-opacity:1"
     id="path1006" />
  <path
     d="m 485,301 q 5,-10 13,-11 l 7,7 v 3 q 0,16 -11,29 l -9,1 q -6,-6 -6,-14 6,-6 6,-15 z m -50,0 q 0,9 6,15 0,8 -6,14 l -9,-1 q -11,-13 -11,-29 v -3 l 7,-7 q 8,1 13,11 z m -230,0 q 5,-10 13,-11 l 7,7 v 3 q 0,16 -11,29 l -9,1 q -6,-6 -6,-14 6,-6 6,-15 z m -50,0 q 0,9 6,15 0,8 -6,14 l -9,-1 q -11,-13 -11,-29 v -3 l 7,-7 q 8,1 13,11 z m 190,0 q 5,-10 13,-11 l 7,7 v 3 q 0,16 -11,29 l -9,1 q -6,-6 -6,-14 6,-6 6,-15 z m -50,0 q 0,9 6,15 0,8 -6,14 l -9,-1 q -11,-13 -11,-29 v -3 l 7,-7 q 8,1 13,11 z m -175,-1 q 0,-25 17.5,-42.5 Q 155,240 180,240 q 25,0 42.5,17.5 Q 240,275 240,300 240,325 222.5,342.5 205,360 180,360 155,360 137.5,342.5 120,325 120,300 Z m 10,0 q 0,21 14.5,35.5 Q 159,350 180,350 201,350 215.5,335.5 230,321 230,300 230,279 215.5,264.5 201,250 180,250 159,250 144.5,264.5 130,279 130,300 Z m 40,0 q 0,10 10,10 10,0 10,-10 0,-10 -10,-10 -10,0 -10,10 z m -10,0 q 0,-8 6,-14 6,-6 14,-6 8,0 14,6 6,6 6,14 0,8 -6,14 -6,6 -14,6 -8,0 -14,-6 -6,-6 -6,-14 z m 14,-24 q -10,2 -15,11 l -8,2 -7,-3 -2,-10 q 11,-16 27,-19 l 9,4 v 8 z m 17,-19 q 16,3 27,19 l -2,10 -7,3 -8,-2 q -5,-9 -15,-11 l -4,-7 v -8 z m -32,76 q 3,-9 12,-10 6,2 9,2 3,0 9,-2 9,1 12,10 l -4,9 q -7,3 -17,3 -10,0 -17,-3 z m -54,-33 q 0,31 22,53 22,22 53,22 24,0 43,-13.5 19,-13.5 27,-34.5 8,21 27,34.5 19,13.5 43,13.5 24,0 43,-13.5 19,-13.5 27,-34.5 8,21 27,34.5 19,13.5 43,13.5 31,0 53,-22 22,-22 22,-53 0,-31 -22,-53 -22,-22 -53,-22 -24,0 -43,13.5 Q 398,252 390,273 382,252 363,238.5 344,225 320,225 296,225 277,238.5 258,252 250,273 242,252 223,238.5 204,225 180,225 q -31,0 -53,22 -22,22 -22,53 z m 295,0 q 0,-25 17.5,-42.5 Q 435,240 460,240 q 25,0 42.5,17.5 Q 520,275 520,300 520,325 502.5,342.5 485,360 460,360 435,360 417.5,342.5 400,325 400,300 Z m 10,0 q 0,21 14.5,35.5 Q 439,350 460,350 481,350 495.5,335.5 510,321 510,300 510,279 495.5,264.5 481,250 460,250 439,250 424.5,264.5 410,279 410,300 Z m 40,0 q 0,10 10,10 10,0 10,-10 0,-10 -10,-10 -10,0 -10,10 z m -10,0 q 0,-8 6,-14 6,-6 14,-6 8,0 14,6 6,6 6,14 0,8 -6,14 -6,6 -14,6 -8,0 -14,-6 -6,-6 -6,-14 z m 14,-24 q -10,2 -15,11 l -8,2 -7,-3 -2,-10 q 11,-16 27,-19 l 9,4 v 8 z m 17,-19 q 16,3 27,19 l -2,10 -7,3 -8,-2 q -5,-9 -15,-11 l -4,-7 v -8 z m -32,76 q 3,-9 12,-10 6,2 9,2 3,0 9,-2 9,1 12,10 l -4,9 q -7,3 -17,3 -10,0 -17,-3 z M 260,300 q 0,-25 17.5,-42.5 Q 295,240 320,240 q 25,0 42.5,17.5 Q 380,275 380,300 380,325 362.5,342.5 345,360 320,360 295,360 277.5,342.5 260,325 260,300 Z m 10,0 q 0,21 14.5,35.5 Q 299,350 320,350 341,350 355.5,335.5 370,321 370,300 370,279 355.5,264.5 341,250 320,250 299,250 284.5,264.5 270,279 270,300 Z m 40,0 q 0,10 10,10 10,0 10,-10 0,-10 -10,-10 -10,0 -10,10 z m -10,0 q 0,-8 6,-14 6,-6 14,-6 8,0 14,6 6,6 6,14 0,8 -6,14 -6,6 -14,6 -8,0 -14,-6 -6,-6 -6,-14 z m 14,-24 q -10,2 -15,11 l -8,2 -7,-3 -2,-10 q 11,-16 27,-19 l 9,4 v 8 z m 17,-19 q 16,3 27,19 l -2,10 -7,3 -8,-2 q -5,-9 -15,-11 l -4,-7 v -8 z m -32,76 q 3,-9 12,-10 6,2 9,2 3,0 9,-2 9,1 12,10 l -4,9 q -7,3 -17,3 -10,0 -17,-3 z"
     style="fill:#cc0000;stroke:none;stroke-opacity:1;fill-opacity:1"
     id="path850" />
  <path
     d="m 485,76 q 5,-10 13,-11 l 7,7 v 3 q 0,16 -11,29 l -9,1 q -6,-6 -6,-14 6,-6 6,-15 z m -50,0 q 0,9 6,15 0,8 -6,14 l -9,-1 Q 415,91 415,75 v -3 l 7,-7 q 8,1 13,11 z m -230,0 q 5,-10 13,-11 l 7,7 v 3 q 0,16 -11,29 l -9,1 q -6,-6 -6,-14 6,-6 6,-15 z m -50,0 q 0,9 6,15 0,8 -6,14 l -9,-1 Q 135,91 135,75 v -3 l 7,-7 q 8,1 13,11 z m 190,0 q 5,-10 13,-11 l 7,7 v 3 q 0,16 -11,29 l -9,1 q -6,-6 -6,-14 6,-6 6,-15 z m -50,0 q 0,9 6,15 0,8 -6,14 l -9,-1 Q 275,91 275,75 v -3 l 7,-7 q 8,1 13,11 z m 190,450 q 5,-10 13,-11 l 7,7 v 3 q 0,16 -11,29 l -9,1 q -6,-6 -6,-14 6,-6 6,-15 z m -50,0 q 0,9 6,15 0,8 -6,14 l -9,-1 q -11,-13 -11,-29 v -3 l 7,-7 q 8,1 13,11 z m -230,0 q 5,-10 13,-11 l 7,7 v 3 q 0,16 -11,29 l -9,1 q -6,-6 -6,-14 6,-6 6,-15 z m -50,0 q 0,9 6,15 0,8 -6,14 l -9,-1 q -11,-13 -11,-29 v -3 l 7,-7 q 8,1 13,11 z M 120,75 Q 120,50 137.5,32.5 155,15 180,15 205,15 222.5,32.5 240,50 240,75 240,100 222.5,117.5 205,135 180,135 155,135 137.5,117.5 120,100 120,75 Z m 10,0 q 0,21 14.5,35.5 Q 159,125 180,125 201,125 215.5,110.5 230,96 230,75 230,54 215.5,39.5 201,25 180,25 159,25 144.5,39.5 130,54 130,75 Z m 40,0 q 0,10 10,10 10,0 10,-10 0,-10 -10,-10 -10,0 -10,10 z m -10,0 q 0,-8 6,-14 6,-6 14,-6 8,0 14,6 6,6 6,14 0,8 -6,14 -6,6 -14,6 -8,0 -14,-6 -6,-6 -6,-14 z m 14,-24 q -10,2 -15,11 l -8,2 -7,-3 -2,-10 q 11,-16 27,-19 l 9,4 v 8 z m 17,-19 q 16,3 27,19 l -2,10 -7,3 -8,-2 q -5,-9 -15,-11 l -4,-7 v -8 z m -32,76 q 3,-9 12,-10 6,2 9,2 3,0 9,-2 9,1 12,10 l -4,9 q -7,3 -17,3 -10,0 -17,-3 z M 105,75 q 0,31 22,53 22,22 53,22 24,0 43,-13.5 19,-13.5 27,-34.5 8,21 27,34.5 19,13.5 43,13.5 24,0 43,-13.5 19,-13.5 27,-34.5 8,21 27,34.5 19,13.5 43,13.5 31,0 53,-22 22,-22 22,-53 Q 535,44 513,22 491,0 460,0 436,0 417,13.5 398,27 390,48 382,27 363,13.5 344,0 320,0 296,0 277,13.5 258,27 250,48 242,27 223,13.5 204,0 180,0 149,0 127,22 105,44 105,75 Z m 295,0 Q 400,50 417.5,32.5 435,15 460,15 485,15 502.5,32.5 520,50 520,75 520,100 502.5,117.5 485,135 460,135 435,135 417.5,117.5 400,100 400,75 Z m 10,0 q 0,21 14.5,35.5 Q 439,125 460,125 481,125 495.5,110.5 510,96 510,75 510,54 495.5,39.5 481,25 460,25 439,25 424.5,39.5 410,54 410,75 Z m 40,0 q 0,10 10,10 10,0 10,-10 0,-10 -10,-10 -10,0 -10,10 z m -10,0 q 0,-8 6,-14 6,-6 14,-6 8,0 14,6 6,6 6,14 0,8 -6,14 -6,6 -14,6 -8,0 -14,-6 -6,-6 -6,-14 z m 14,-24 q -10,2 -15,11 l -8,2 -7,-3 -2,-10 q 11,-16 27,-19 l 9,4 v 8 z m 17,-19 q 16,3 27,19 l -2,10 -7,3 -8,-2 q -5,-9 -15,-11 l -4,-7 v -8 z m -32,76 q 3,-9 12,-10 6,2 9,2 3,0 9,-2 9,1 12,10 l -4,9 q -7,3 -17,3 -10,0 -17,-3 z M 260,75 Q 260,50 277.5,32.5 295,15 320,15 345,15 362.5,32.5 380,50 380,75 380,100 362.5,117.5 345,135 320,135 295,135 277.5,117.5 260,100 260,75 Z m 10,0 q 0,21 14.5,35.5 Q 299,125 320,125 341,125 355.5,110.5 370,96 370,75 370,54 355.5,39.5 341,25 320,25 299,25 284.5,39.5 270,54 270,75 Z m 40,0 q 0,10 10,10 10,0 10,-10 0,-10 -10,-10 -10,0 -10,10 z m -10,0 q 0,-8 6,-14 6,-6 14,-6 8,0 14,6 6,6 6,14 0,8 -6,14 -6,6 -14,6 -8,0 -14,-6 -6,-6 -6,-14 z m 14,-24 q -10,2 -15,11 l -8,2 -7,-3 -2,-10 q 11,-16 27,-19 l 9,4 v 8 z m 17,-19 q 16,3 27,19 l -2,10 -7,3 -8,-2 q -5,-9 -15,-11 l -4,-7 v -8 z m -32,76 q 3,-9 12,-10 6,2 9,2 3,0 9,-2 9,1 12,10 l -4,9 q -7,3 -17,3 -10,0 -17,-3 z M 120,525 q 0,-25 17.5,-42.5 Q 155,465 180,465 q 25,0 42.5,17.5 Q 240,500 240,525 240,550 222.5,567.5 205,585 180,585 155,585 137.5,567.5 120,550 120,525 Z m 10,0 q 0,21 14.5,35.5 Q 159,575 180,575 201,575 215.5,560.5 230,546 230,525 230,504 215.5,489.5 201,475 180,475 159,475 144.5,489.5 130,504 130,525 Z m 40,0 q 0,10 10,10 10,0 10,-10 0,-10 -10,-10 -10,0 -10,10 z m -10,0 q 0,-8 6,-14 6,-6 14,-6 8,0 14,6 6,6 6,14 0,8 -6,14 -6,6 -14,6 -8,0 -14,-6 -6,-6 -6,-14 z m 14,-24 q -10,2 -15,11 l -8,2 -7,-3 -2,-10 q 11,-16 27,-19 l 9,4 v 8 z m 17,-19 q 16,3 27,19 l -2,10 -7,3 -8,-2 q -5,-9 -15,-11 l -4,-7 v -8 z m -32,76 q 3,-9 12,-10 6,2 9,2 3,0 9,-2 9,1 12,10 l -4,9 q -7,3 -17,3 -10,0 -17,-3 z m -54,-33 q 0,31 22,53 22,22 53,22 24,0 43,-13.5 19,-13.5 27,-34.5 8,21 27,34.5 19,13.5 43,13.5 24,0 43,-13.5 19,-13.5 27,-34.5 8,21 27,34.5 19,13.5 43,13.5 31,0 53,-22 22,-22 22,-53 0,-31 -22,-53 -22,-22 -53,-22 -24,0 -43,13.5 Q 398,477 390,498 382,477 363,463.5 344,450 320,450 296,450 277,463.5 258,477 250,498 242,477 223,463.5 204,450 180,450 q -31,0 -53,22 -22,22 -22,53 z m 295,0 q 0,-25 17.5,-42.5 Q 435,465 460,465 q 25,0 42.5,17.5 Q 520,500 520,525 520,550 502.5,567.5 485,585 460,585 435,585 417.5,567.5 400,550 400,525 Z m 10,0 q 0,21 14.5,35.5 Q 439,575 460,575 481,575 495.5,560.5 510,546 510,525 510,504 495.5,489.5 481,475 460,475 439,475 424.5,489.5 410,504 410,525 Z m 40,0 q 0,10 10,10 10,0 10,-10 0,-10 -10,-10 -10,0 -10,10 z m -10,0 q 0,-8 6,-14 6,-6 14,-6 8,0 14,6 6,6 6,14 0,8 -6,14 -6,6 -14,6 -8,0 -14,-6 -6,-6 -6,-14 z m 14,-24 q -10,2 -15,11 l -8,2 -7,-3 -2,-10 q 11,-16 27,-19 l 9,4 v 8 z m 17,-19 q 16,3 27,19 l -2,10 -7,3 -8,-2 q -5,-9 -15,-11 l -4,-7 v -8 z m -32,76 q 3,-9 12,-10 6,2 9,2 3,0 9,-2 9,1 12,10 l -4,9 q -7,3 -17,3 -10,0 -17,-3 z M 260,525 q 0,-25 17.5,-42.5 Q 295,465 320,465 q 25,0 42.5,17.5 Q 380,500 380,525 380,550 362.5,567.5 345,585 320,585 295,585 277.5,567.5 260,550 260,525 Z m 10,0 q 0,21 14.5,35.5 Q 299,575 320,575 341,575 355.5,560.5 370,546 370,525 370,504 355.5,489.5 341,475 320,475 299,475 284.5,489.5 270,504 270,525 Z m 40,0 q 0,10 10,10 10,0 10,-10 0,-10 -10,-10 -10,0 -10,10 z m -10,0 q 0,-8 6,-14 6,-6 14,-6 8,0 14,6 6,6 6,14 0,8 -6,14 -6,6 -14,6 -8,0 -14,-6 -6,-6 -6,-14 z m 14,-24 q -10,2 -15,11 l -8,2 -7,-3 -2,-10 q 11,-16 27,-19 l 9,4 v 8 z m 17,-19 q 16,3 27,19 l -2,10 -7,3 -8,-2 q -5,-9 -15,-11 l -4,-7 v -8 z m 14,44 q 5,-10 13,-11 l 7,7 v 3 q 0,16 -11,29 l -9,1 q -6,-6 -6,-14 6,-6 6,-15 z m -50,0 q 0,9 6,15 0,8 -6,14 l -9,-1 q -11,-13 -11,-29 v -3 l 7,-7 q 8,1 13,11 z m 4,32 q 3,-9 12,-10 6,2 9,2 3,0 9,-2 9,1 12,10 l -4,9 q -7,3 -17,3 -10,0 -17,-3 z"
     style="fill:#000099;stroke:none;stroke-opacity:1;fill-opacity:1"
     id="path2" />
</svg>
